X:546
T: Gongshe siji shi chuntian
N: C1964
O: China,Hunan Huitong
S: I, 509]
R: Xiaodiao, Bawangbian]
M: 3/4
L: 1/16
K: G
A2AAA2ABd4 | BAGAd2B2A4 |
ABAGEDEGA4 | G2AGEDE2D4 |
A2AAA2ABd4 | BAGAd2B2A4 |
ABAGEDEGA4 | G2AGEDE2D4 |
d2d2BAGA | d2B2A4
ABAGEDEGA4 | G2AGEDE2D4

@@@ Tune index: 7101
